docs/images/icons/realization.svg

<svg width="66" height="58" viewBox="0 0 66 58" fill="none" xmlns="http://www.w3.org/2000/svg">
<path fill-rule="evenodd" clip-rule="evenodd" d="M64.6854 48.4541H45.9411C45.5124 48.4541 45.1677 48.1066 45.1677 47.6808C45.1677 47.2522 45.5153 46.9075 45.9411 46.9075H63.9091V27.2741C63.9091 25.5798 62.5305 24.2012 60.8334 24.2012H4.62541C2.93107 24.2012 1.54961 25.5798 1.54961 27.2741V46.9075H19.5177C19.9463 46.9075 20.291 47.255 20.291 47.6808C20.291 48.1094 19.9435 48.4541 19.5177 48.4541H0.773324C0.344674 48.4541 0 48.1066 0 47.6808V27.2741C0 24.7254 2.07374 22.6517 4.62244 22.6517H60.8304C63.3791 22.6517 65.4528 24.7254 65.4528 27.2741V47.6808C65.4528 48.1094 65.1053 48.4541 64.6795 48.4541H64.6854Z" fill="white"/>
<path fill-rule="evenodd" clip-rule="evenodd" d="M53.6306 30.9026H11.8348C11.4062 30.9026 11.0615 30.5551 11.0615 30.1293V23.4244C11.0615 22.9958 11.4091 22.6511 11.8348 22.6511C12.2635 22.6511 12.6082 22.9987 12.6082 23.4244V29.356H52.8544V23.4244C52.8544 22.9958 53.2019 22.6511 53.6277 22.6511C54.0563 22.6511 54.401 22.9987 54.401 23.4244V30.1293C54.401 30.3349 54.3199 30.5319 54.1722 30.6767C54.0274 30.8215 53.8304 30.9026 53.6248 30.9026L53.6306 30.9026Z" fill="white"/>
<path fill-rule="evenodd" clip-rule="evenodd" d="M64.6856 48.4539H53.6308C53.2021 48.4539 52.8574 48.1064 52.8574 47.6806C52.8574 47.252 53.205 46.9073 53.6308 46.9073H64.6856C65.1143 46.9073 65.459 47.2548 65.459 47.6806C65.459 48.1093 65.1114 48.4539 64.6856 48.4539Z" fill="white"/>
<path fill-rule="evenodd" clip-rule="evenodd" d="M4.30686 37.5299H8.30657V33.5708H4.30686V37.5299ZM9.07989 39.0794H3.53065C3.102 39.0794 2.75732 38.7318 2.75732 38.3061V32.7974C2.75732 32.3687 3.10488 32.024 3.53065 32.024H9.07989C9.50854 32.024 9.85322 32.3716 9.85322 32.7974V38.3061C9.85322 38.7347 9.50567 39.0794 9.07989 39.0794Z" fill="white"/>
<path fill-rule="evenodd" clip-rule="evenodd" d="M51.2839 48.454C50.8553 48.454 50.5077 48.1064 50.5077 47.6806V35.8265H14.9534V47.6777C14.9534 48.1063 14.6087 48.451 14.1801 48.451C13.7514 48.451 13.4067 48.1034 13.4067 47.6777V35.0502C13.4067 34.6215 13.7543 34.2769 14.1801 34.2769H51.284C51.7127 34.2769 52.0573 34.6244 52.0573 35.0502V47.6777C52.0573 48.1063 51.7098 48.451 51.284 48.451L51.2839 48.454Z" fill="white"/>
<path fill-rule="evenodd" clip-rule="evenodd" d="M20.2947 56.4506H45.1649V40.4021H20.2947V56.4506ZM45.9412 58H19.5214C19.0927 58 18.748 57.6525 18.748 57.2267V39.6293C18.748 39.2007 19.0956 38.856 19.5214 38.856H45.9412C46.3698 38.856 46.7145 39.2036 46.7145 39.6293V57.2267C46.7145 57.6554 46.3669 58 45.9412 58Z" fill="white"/>
<path fill-rule="evenodd" clip-rule="evenodd" d="M57.6737 27.2685C57.0539 27.2685 56.5471 27.7754 56.5471 28.3952C56.5471 29.0149 57.051 29.5218 57.6737 29.5218H60.6366C61.2564 29.5218 61.7632 29.0178 61.7632 28.3952C61.7632 27.7725 61.2593 27.2685 60.6366 27.2685H57.6737ZM60.6366 31.0713H57.6737C56.1995 31.0713 54.9976 29.8723 54.9976 28.3952C54.9976 26.9209 56.1966 25.719 57.6737 25.719H60.6366C62.1108 25.719 63.3127 26.9209 63.3127 28.3952C63.3127 29.8694 62.1137 31.0713 60.6366 31.0713Z" fill="white"/>
<path fill-rule="evenodd" clip-rule="evenodd" d="M57.6737 34.4249C57.0539 34.4249 56.5471 34.9317 56.5471 35.5515C56.5471 36.1713 57.051 36.6781 57.6737 36.6781H60.6366C61.2564 36.6781 61.7632 36.1742 61.7632 35.5515C61.7632 34.9289 61.2593 34.4249 60.6366 34.4249H57.6737ZM60.6366 38.2277H57.6737C56.1995 38.2277 54.9976 37.0286 54.9976 35.5515C54.9976 34.0773 56.1966 32.8754 57.6737 32.8754H60.6366C62.1108 32.8754 63.3127 34.0744 63.3127 35.5515C63.3127 37.0257 62.1137 38.2277 60.6366 38.2277Z" fill="white"/>
<path fill-rule="evenodd" clip-rule="evenodd" d="M57.6737 41.5818C57.0539 41.5818 56.5471 42.0886 56.5471 42.7084C56.5471 43.3282 57.051 43.835 57.6737 43.835H60.6366C61.2564 43.835 61.7632 43.3311 61.7632 42.7084C61.7632 42.0857 61.2593 41.5818 60.6366 41.5818H57.6737ZM60.6366 45.3845H57.6737C56.1995 45.3845 54.9976 44.1855 54.9976 42.7084C54.9976 41.2342 56.1966 40.0322 57.6737 40.0322H60.6366C62.1108 40.0322 63.3127 41.2342 63.3127 42.7084C63.3127 44.1826 62.1137 45.3845 60.6366 45.3845Z" fill="white"/>
<path fill-rule="evenodd" clip-rule="evenodd" d="M14.7098 24.1977C14.2812 24.1977 13.9365 23.8501 13.9365 23.4243V11.7815C13.9365 10.1364 15.2746 8.79547 16.9225 8.79547H19.5205C19.9491 8.79547 20.2938 9.14302 20.2938 9.56879C20.2938 9.99744 19.9462 10.3421 19.5205 10.3421H16.9225C16.129 10.3421 15.486 10.988 15.486 11.7787V23.4215C15.486 23.8502 15.1413 24.1948 14.7127 24.1948L14.7098 24.1977ZM50.7476 24.1977C50.319 24.1977 49.9743 23.8501 49.9743 23.4243V11.7815C49.9743 10.9908 49.3284 10.3449 48.5377 10.3449H45.9398C45.5112 10.3449 45.1665 9.99739 45.1665 9.57161C45.1665 9.14297 45.514 8.79829 45.9398 8.79829H48.5377C50.1829 8.79829 51.5209 10.1364 51.5209 11.7843V23.4272C51.5209 23.8558 51.1762 24.2005 50.7475 24.2005L50.7476 24.1977Z" fill="white"/>
<path fill-rule="evenodd" clip-rule="evenodd" d="M8.22543 24.1978C7.79679 24.1978 7.44922 23.8502 7.44922 23.4245V18.2634C7.44922 16.8616 8.59037 15.7233 9.98925 15.7233H14.7073C15.1359 15.7233 15.4806 16.0709 15.4806 16.4967C15.4806 16.9253 15.1359 17.27 14.7073 17.27H9.98925C9.44186 17.27 8.99587 17.716 8.99587 18.2605V23.4216C8.99587 23.8502 8.65121 24.1949 8.22254 24.1949L8.22543 24.1978ZM57.2362 24.1978C56.8076 24.1978 56.4629 23.8502 56.4629 23.4245V18.2634C56.4629 17.716 56.0168 17.2729 55.4695 17.2729H50.7486C50.3199 17.2729 49.9753 16.9253 49.9753 16.4995C49.9753 16.0709 50.3199 15.7262 50.7486 15.7262H55.4695C56.8713 15.7262 58.0095 16.8645 58.0095 18.2662V23.4273C58.0095 23.856 57.6649 24.2007 57.2362 24.2007V24.1978Z" fill="white"/>
<path fill-rule="evenodd" clip-rule="evenodd" d="M42.7603 44.7985H22.7006C22.2719 44.7985 21.9272 44.451 21.9272 44.0252C21.9272 43.5966 22.2748 43.2519 22.7006 43.2519H42.7603C43.1889 43.2519 43.5336 43.5994 43.5336 44.0252C43.5336 44.4539 43.186 44.7985 42.7603 44.7985Z" fill="white"/>
<path fill-rule="evenodd" clip-rule="evenodd" d="M42.7603 49.1987H22.7006C22.2719 49.1987 21.9272 48.8511 21.9272 48.4254C21.9272 47.9967 22.2748 47.652 22.7006 47.652H42.7603C43.1889 47.652 43.5336 47.9996 43.5336 48.4254C43.5336 48.854 43.186 49.1987 42.7603 49.1987Z" fill="white"/>
<path fill-rule="evenodd" clip-rule="evenodd" d="M42.7603 53.5983H22.7006C22.2719 53.5983 21.9272 53.2507 21.9272 52.825C21.9272 52.3963 22.2748 52.0516 22.7006 52.0516H42.7603C43.1889 52.0516 43.5336 52.3992 43.5336 52.825C43.5336 53.2536 43.186 53.5983 42.7603 53.5983Z" fill="white"/>
<path fill-rule="evenodd" clip-rule="evenodd" d="M20.2947 17.5946H45.1649V1.54605H20.2947V17.5946ZM45.9412 19.144H19.5214C19.0927 19.144 18.748 18.7965 18.748 18.3707V0.773323C18.748 0.344681 19.0956 0 19.5214 0H45.9412C46.3698 0 46.7145 0.34755 46.7145 0.773323V18.3707C46.7145 18.7993 46.3669 19.144 45.9412 19.144Z" fill="white"/>
</svg>

<svg width="66" height="58" fill="none" xmlns="http://www.w3.org/2000/svg"><path fill-rule="evenodd" clip-rule="evenodd" d="M64.685 48.454H45.941a.773.773 0 1 1 0-1.547H63.91V27.274a3.077 3.077 0 0 0-3.076-3.073H4.625a3.079 3.079 0 0 0-3.075 3.073v19.633h17.968a.773.773 0 1 1 0 1.547H.773A.773.773 0 0 1 0 47.681V27.274a4.628 4.628 0 0 1 4.622-4.622H60.83a4.628 4.628 0 0 1 4.623 4.622v20.407a.773.773 0 0 1-.773.773h.005Z" fill="#fff"/><path fill-rule="evenodd" clip-rule="evenodd" d="M53.63 30.903H11.836a.773.773 0 0 1-.774-.774v-6.705a.773.773 0 1 1 1.547 0v5.932h40.246v-5.932a.773.773 0 1 1 1.547 0v6.705a.774.774 0 0 1-.776.773h.006Zm11.056 17.551H53.63a.773.773 0 1 1 0-1.547h11.055a.773.773 0 1 1 0 1.547ZM4.307 37.53h4v-3.96h-4v3.96Zm4.773 1.55H3.53a.773.773 0 0 1-.773-.774v-5.509c0-.428.348-.773.774-.773H9.08c.429 0 .773.348.773.773v5.51a.773.773 0 0 1-.773.772Zm42.204 9.374a.776.776 0 0 1-.776-.773V35.827H14.953v11.85a.773.773 0 1 1-1.547 0V35.05c0-.428.348-.773.774-.773h37.104c.429 0 .773.347.773.773v12.628a.773.773 0 0 1-.773.773v.003Z" fill="#fff"/><path fill-rule="evenodd" clip-rule="evenodd" d="M20.295 56.45h24.87V40.403h-24.87v16.049ZM45.94 58H19.52a.773.773 0 0 1-.773-.773V39.629c0-.428.348-.773.773-.773h26.42c.429 0 .773.348.773.773v17.598a.773.773 0 0 1-.773.773Zm11.734-30.732a1.13 1.13 0 0 0-1.127 1.127c0 .62.504 1.127 1.127 1.127h2.963a1.128 1.128 0 0 0 0-2.253h-2.963Zm2.963 3.803h-2.963a2.68 2.68 0 0 1-2.676-2.676 2.68 2.68 0 0 1 2.676-2.676h2.963a2.681 2.681 0 0 1 2.676 2.676 2.68 2.68 0 0 1-2.676 2.676Zm-2.963 3.354a1.128 1.128 0 0 0 0 2.253h2.963a1.128 1.128 0 0 0 0-2.253h-2.963Zm2.963 3.803h-2.963a2.68 2.68 0 0 1-2.676-2.677 2.68 2.68 0 0 1 2.676-2.676h2.963a2.68 2.68 0 0 1 2.676 2.676 2.68 2.68 0 0 1-2.676 2.677Zm-2.963 3.354a1.128 1.128 0 0 0 0 2.253h2.963a1.128 1.128 0 0 0 0-2.253h-2.963Zm2.963 3.803h-2.963a2.68 2.68 0 0 1-2.676-2.677 2.68 2.68 0 0 1 2.676-2.676h2.963a2.681 2.681 0 0 1 2.676 2.676 2.68 2.68 0 0 1-2.676 2.677ZM14.71 24.198a.773.773 0 0 1-.774-.774V11.781a2.99 2.99 0 0 1 2.986-2.986h2.598a.773.773 0 1 1 0 1.547h-2.598c-.793 0-1.436.646-1.436 1.437v11.643a.771.771 0 0 1-.773.773l-.003.003Zm36.038 0a.773.773 0 0 1-.774-.774V11.781a1.44 1.44 0 0 0-1.436-1.436H45.94a.773.773 0 1 1 0-1.547h2.598a2.987 2.987 0 0 1 2.983 2.986v11.643a.771.771 0 0 1-.773.774v-.003Z" fill="#fff"/><path fill-rule="evenodd" clip-rule="evenodd" d="M8.225 24.198a.776.776 0 0 1-.776-.774v-5.16a2.543 2.543 0 0 1 2.54-2.54h4.718a.773.773 0 1 1 0 1.546H9.99a.994.994 0 0 0-.993.99v5.162a.771.771 0 0 1-.773.773l.002.003Zm49.011 0a.773.773 0 0 1-.773-.774v-5.16a.993.993 0 0 0-.994-.991h-4.72a.773.773 0 1 1 0-1.547h4.72a2.541 2.541 0 0 1 2.54 2.54v5.161a.771.771 0 0 1-.773.774v-.003Zm-14.476 20.6H22.7a.773.773 0 1 1 0-1.546h20.06a.773.773 0 1 1 0 1.546Zm0 4.401H22.7a.773.773 0 1 1 0-1.547h20.06a.773.773 0 1 1 0 1.547Zm0 4.399H22.7a.773.773 0 1 1 0-1.546h20.06a.773.773 0 1 1 0 1.546ZM20.295 17.595h24.87V1.546h-24.87v16.049Zm25.646 1.549h-26.42a.773.773 0 0 1-.773-.773V.773c0-.428.348-.773.773-.773h26.42c.429 0 .773.348.773.773v17.598a.773.773 0 0 1-.773.773Z" fill="#fff"/></svg>
